X:1
T:Fog Free Shower Mirror (It's Also a Radio)
C:copyright 1997 Kaubells
R:Reel
N:Words by Lillian Vernon, Matt Kaufmann, Craig Rutter
E:20                   % note spacing
M:C
K:G
"G"d4 B4|b3 a gd2 d|"D7"ddzd b2a2|"G"g4 z4|*
"G"d4 B4|b3 a gd2 d|"D7"ddzd b2a2|"G"g4 "G7"z4|*
"C"ggza g3e|ga3 ge3|"G"ddzB d2e2|d4 z4|*
"A7"e3f g3e|b3a ge3|"D7"a2 b2 "(Em)"a2 "(F)"b2|"D7"~a4 z4:|*
T:(It's OK to sing this an octave lower.)
\bigskip
W:Fog Free Shower Mirror,
W:It's also a radio!
W:Fog Free Shower Mirror,
W:It's also a radio!
\bigskip
W:See as you shave in steamy showers;
W:Listen to favorite tunes.
W:Catch the news and traffic updates:
W:Mirror never fogs!
